!!!!SEGMENT: pl-wtm--a-34-848-84_boczkowski-jerzy--zegnaj-ninon-odchodze-juz.krn
!!!cenid: 19xx:33
!!!COM: Boczkowski, Jerzy
!!!COM-rismID: pe50047498
!!!CDT: 1882-1953
!!!CNT: Polish
!!!OTL: Żegnaj, Ninon!/Odchodzę już!
!!!PDT:
!!!AGN: Secular
!!!YEC: Copyright 2022 Narodowy Instytut Fryderyka Chopina (https://polishscores.org)
!!!YEM: License CC-BY-4.0 (https://creativecommons.org/licenses/by/4.0)
!!!SMS-siglum: PL-Wtm
!!!SMS-shelfmark: A.34.848-84
!!!SMS-variant:
!!!SMS-altvar:
!!!SMS-shelfwork: W
!!!NIFC-rismSourceID: 1001157926
!!!NIFC-rismChildID: 1001157926
!!!NIFC-islandoraID: pl-wtm:2826
!!!URL-pdf-islandora: https://repozytorium.nifc.pl/islandora/object/pl-wtm%3A2826/datastream/PDF/view
!!!URL-scan: https://polish.musicsources.pl/pl/lokalizacje/galeria/druki-muzyczne/15521/2 @EN{Scan on Polish Music Sources Website} @PL{Skany w portalu Dziedzictwo Muzyki Polskiej w otwartym dostępie}
!!!IIIF:
!!!ONB-nifc:
!!!OMD: Moderato.
!!!AIN: 1 piano 1 vox
!!!key:
**kern	**kern	**kern	**text	**text
*part2	*part2	*part1	*part1	*part1
*staff3	*staff2	*staff1	*staff1	*staff1
*I"[Pianoforte]	*	*I"[Voce]	*	*
*Ipiano	*	*Ivox	*	*
*ICklav	*	*ICvox	*	*
*IGacmp	*	*IGsolo	*	*
*clefF4	*clefG2	*clefG2	*	*
*k[b-e-a-d-]	*k[b-e-a-d-]	*k[b-e-a-d-]	*	*
*f:	*f:	*f:	*	*
*M3/4	*M3/4	*M3/4	*	*
*>[A,B,B1,B,B2]	*>[A,B,B1,B,B2]	*>[A,B,B1,B,B2]	*	*
=1	=1	=1	=1	=1
*>A	*>A	*>A	*	*
8.FF\L	8r	2.r	.	.
.	16Bn/LL	.	.	.
16C\K	16c/J	.	.	.
8A-\	8d-/	.	.	.
8C\	8c/	.	.	.
8B-\	8.en/ 8.g	.	.	.
8C\J	.	.	.	.
.	16a-/Jk	.	.	.
=2	=2	=2	=2	=2
8.FF\L	8f/L	2.r	.	.
.	16Bn/L	.	.	.
16C\K	16c/J	.	.	.
8A-\	8d-/	.	.	.
8C\	8c/	.	.	.
8B-\	8.en/ 8.g	.	.	.
8C\J	.	.	.	.
.	16a-/Jk	.	.	.
!LO:TX:b:t=[segno]	!LO:TX:a:t=[segno]	!LO:TX:a:t=[segno]	!	!
=3!|:	=3!|:	=3!|:	=3!|:	=3!|:
*>B	*>B	*>B	*	*
8.FF\L	[2.f/	2.r	.	.
16C\K	.	.	.	.
8A-\	.	.	.	.
8C\	.	.	.	.
8A-\	.	.	.	.
8C\J	.	.	.	.
=4	=4	=4	=4	=4
8.FF\L	8f/]	4r	.	.
.	8r	.	.	.
16C\K	.	.	.	.
8A-\	4r	4r	.	.
8C\	.	.	.	.
8A-\	8r	8r	.	.
8C\J	8c/	8c/	Od-	I
!!LO:LB:g=original
=5	=5	=5	=5	=5
8.FF\L	8.a-\L 8.cc	8.cc\	-cho-	zno-
16C\K	16g\Jk 16b-	16b-\	-dzę	-wu
8A-\	4.a-\ 4.cc	4.cc\	już!	je-
8C\	.	.	.	.
8A-\	.	.	.	.
8C\J	8f/ 8a-	8a-/	Daj	-dna
=6	=6	=6	=6	=6
8.BB-\L	16g/LL 16b-	16b-\	dłoń	do-
.	16f/ 16a-	16a-/	na	-czy-
.	16en/ 16g	16g/	po-	-ta-
16G\K	16f/JJ 16a-	16a-/	-że-	-na
8d-\	4.g/ 4.b-	4b-\	-gna-	kar-
8G\	.	.	.	.
8d-\	.	8b-\	-nie!	-ta:
8G\J	8e/ 8g	8g/	Nie	Z go-
=7	=7	=7	=7	=7
*	*^	*	*	*
8.BBn\L	8.g/L	2dn\	8.g/	ża-	-ry-
16G\K	16a-/Jk	.	16a-/	-łuj	-czą
8Bn\	4.g/	.	4.g/	słod-	ksią-
8G\	.	.	.	.	.
8B\	.	4ryy	.	.	.
8G\J	8f/	.	8f/	-kich	-żka
*	*v	*v	*	*	*
!!LO:LB:g=original
=8||	=8||	=8||	=8||	=8||
*M4/4	*M4/4	*M4/4	*	*
*met(c)	*met(c)	*met(c)	*	*
8GG\L	16en/LL	16en/	nie-	nam
.	16dn/	16dn/	-po-	wy-
8G\J	16e/	16e/	-wro-	-pa-
.	16f/JJ	16f/	-tnych	-da
8.C\L	4.e/ 4.g	4.g/	dni!	z rąk!
16G\K	.	.	.	.
8c\	.	.	.	.
8G\	8e/L 8g	8r	.	.
8C\ 8B-	8f/ 8a-	8r	.	.
8En\J	8c/J 8b-	8c/	Niech	Wy-
=9||	=9||	=9||	=9||	=9||
*M3/4	*M3/4	*M3/4	*	*
8.FF\L	8.a-\L 8.cc	8.cc\	ci	-znaj-
16C\K	16g\Jk 16b-	16b-\	się	-my
8A-\	4.a-\ 4.cc	4.cc\	dziś	szcze-
8C\	.	.	.	.
8A-\	.	.	.	.
8C\J	8f/ 8a-	8a-/	już,	-rze,
!!LO:PB:g=original
=10	=10	=10	=10	=10
8.BB-\L	16g/LL 16b-	16b-\	nim	gra
.	16f/ 16a-	16a-/	świt	nie
.	16en/ 16g	16g/	sre-	by-
16G\K	16f/JJ 16a-	16a-/	-brny	-ła
8d-\	4g\ 4b-	4b-\	wsta-	war-
8G\	.	.	.	.
8d-\	8a-\L 8cc	8cc\	-nie,	-ta,
8G\J	8b-\J 8dd-	8dd-\	Ko-	By
=11	=11	=11	=11	=11
8.EE-\L	8.g\L 8.ee-	8.ee-\	-cha-	chwi-
16E-\K	16f#X\Jk 16ddn	16ddn\	-nek	-le
8G\	4.g\ 4.ee-	4.ee-\	no-	złu-
8E-\	.	.	.	.
8G\	.	.	.	.
8E-\J	8fn\ 8dd-X	8dd-X\	-wy,	-dy
=12||	=12||	=12||	=12||	=12||
*M4/4	*M4/4	*M4/4	*	*
*met(c)	*met(c)	*met(c)	*	*
8EE-\L	16e-/LL 16cc	16cc\	no-	w fał-
.	16d-/ 16b-	16b-\	-we	-szów
8E-\J	16c/ 16a-	16a-/	szczę-	stro-
.	16d-/JJ 16b-	16b-\	-ście	-ic
8.AA-\L	[2e-/ [2cc	4.cc\	śni!	krąg!
16E-\K	.	.	.	.
8c\	.	.	.	.
8E-\	.	8r	.	.
8c\	8e-/] 8cc]	8r	.	.
8E-\J	8cc\	8cc\	Roz-	Choć
!!LO:LB:g=original
=13||	=13||	=13||	=13||	=13||
*M3/4	*M3/4	*M3/4	*	*
8.FF\L	8.an\L 8.cc	8.cc\	-łą-	ser-
16F\K	16b-\Jk 16dd-	16dd-\	-ki	-ca
8An\	4.a\ 4.cc	4.cc\	pa-	sprzę-
8F\	.	.	.	.
8A\	.	.	.	.
8F\J	8f/ 8a	8an/	-dło	-gła
=14	=14	=14	=14	=14
8FF\L	16en/LL	16en/	bez-	cud-
.	16f/	16f/	-li-	-nych
8F\J	16g-X/	16g-X/	-to-	tęs-
.	16e/JJ	16e/	-sne	-knot
8.BB-\L	4g-/	4g-/	sło-	si-
16F\K	.	.	.	.
8d-\	8f/L	8f/	-wo	-ła,
8F\J	8f/J	8f/	I	Prze-
=15	=15	=15	=15	=15
8d-\L	8f/L	8f/	zro-	-mi-
8F\J	8f-X/J	8f-X/	-zu-	-nął
8.EE-\L	2F/ 2e-	4.e-/	-mia-	wkrót-
16E-\K	.	.	.	.
8B-\ 8d-	.	.	.	.
8E-\J	.	8e-/	-łaś,	-ce
!!LO:LB:g=original
=16||	=16||	=16||	=16||	=16||
*M4/4	*M4/4	*M4/4	*	*
*met(c)	*met(c)	*met(c)	*	*
8B-\L 8d-	16dn\LL	16dn/	że	u-
.	16e-\	16e-/	już	-po-
8E-\J	16g\ 16ee-	16ee-\	mu-	-je-
.	16f\JJ 16dd-	16dd-\	-szę	-nia
8.AA-\L	[2e-\ [2cc	4.cc\	iść...	czar.
16E-\K	.	.	.	.
8c\	.	.	.	.
8E-\	.	8r	.	.
8c\	8e-/] 8cc]	8r	.	.
8E-\J	8cc\	8cc\	Na	Jam
=17||	=17||	=17||	=17||	=17||
*M3/4	*M3/4	*M3/4	*	*
8G\L 8B- 8c 8en	8cc\L	8cc\	no-	wie-
8G\J 8B- 8c 8e	8cc\J	8cc\	-we	-rzyć
8F\L 8A- 8c 8f	4.cc\	4.cc\	szczęś-	prze-
8F\ 8A- 8c 8f	.	.	.	.
8F\ 8A- 8c 8f	.	.	.	.
8F\J 8A- 8c 8f	8a-/	8a-/	-cie,	-stał,
=18	=18	=18	=18	=18
8D-\L 8F 8A-	16a-/LL	16a-/	na	tyś
.	16a-/	16a-/	nie-	mi
8D-\J 8F 8A-	16f/	16f/	-do-	nie
.	16a-/JJ	16a-/	-lę	wie-
8C\L 8E- 8A-	4a-/	4a-/	no-	-rzy-
8C\ 8E- 8A-	.	.	.	.
8C\ 8E- 8A-	8a-/L	8a-/	-wą	-ła,
8C\J 8E- 8A-	8a-/J	8a-/	Jak	Kła-
!!LO:LB:g=original
=19	=19	=19	=19	=19
8C\L 8E- 8A-	8a-/L	8a-/	prze-	-ma-
8C\J 8E- 8A-	8a-/J	8a-/	-zna-	-ły
8BBB-\L 8BB-	4.g/	4.g/	-cze-	u-
8BB-\ 8D- 8F	.	.	.	.
8D-\ 8F 8B-	.	.	.	.
8F\J 8B- 8d-	8g/	8g/	-nia	-sta,
=20	=20	=20	=20	=20
8BBBn\L 8BBn	16g/LL	16g/	wich-	kła-
.	16g/	16g/	-rem	-mał
.	(8qb-/	.	.	.
8G\J 8Bn 8dn 8f	16.a-/)	16a-/	gna-	piesz-
.	.	16g/	-ny	-czot
.	32g/JJk	.	.	.
(32EE-\LLL	8c:\L 8en: 8g: 8b-: 8cc:	8cc\	liść!	żar.
32BB\	.	.	.	.
32C\	.	.	.	.
32En\JJJ	.	.	.	.
32G\LLL	8g:\ 8b-: 8cc: 8een:	4.cc;\	Ach!	Ach!
32An\	.	.	.	.
32B\	.	.	.	.
32Bn\JJJ	.	.	.	.
48c\LLL	8b-:\ 8cc: 8ee: 8gg:	.	.	.
48B-X\	.	.	.	.
48G\	.	.	.	.
48E\	.	.	.	.
48Dn\	.	.	.	.
48D-X\JJJ	.	.	.	.
*	*8va	*	*	*
!LO:TX:t=p:problem=LO:N:vis=8?	!LO:TX:b:t=rit.	!	!	!
16C/LL)	8ccc:\J 8eeen: 8ggg: 8bbb-: 8cccc:	.	.	.
!LO:TX:t=p:problem=LO:N:vis=8?	!	!	!	!
16CCC/JJ 16CC	.	.	.	.
*	*X8va	*	*	*
!!LO:PB:g=original
=21||	=21||	=21||	=21||	=21||
*k[b-]	*k[b-]	*k[b-]	*	*
!	!	!LO:TX:a:t=REFRAIN.	!	!
2.r	4f'~/ 4a	4a/	Że-	.
.	4.e'~/ 4.g	4.g/	-gnaj,	.
.	8d'~/ 8f	8f/	Ni-	.
=22	=22	=22	=22	=22
4EE/	2.e\ 2.b- 2.cc	2.cc\	-non!	.
4G\ 4B- 4c	.	.	.	.
4G\ 4B- 4c	.	.	.	.
=23	=23	=23	=23	=23
4CC/	4d/	4d/	Czas	.
4C\ 4E 4B-	4e/	4e/	smu-	.
4C\ 4E 4B-	4a/	4a/	-tek	.
=24	=24	=24	=24	=24
4FF/	2d/	2d/	zgo-	.
4C\ 4F 4A	.	.	.	.
4C\ 4F 4A	4d/	4d/	-ni,	.
=25	=25	=25	=25	=25
4AA/	4c/	4c/	O-	.
4C\ 4F 4A	4.f/	4.f/	-trzyj	.
4C\ 4F 4A	.	.	.	.
.	8a/	8a/	o-	.
!!LO:LB:g=original
=26	=26	=26	=26	=26
4FF#X/	2a\ 2cc	2cc\	-czę-	.
4D\ 4F#X 4c	.	.	.	.
4D\ 4F# 4c	4a\ 4cc	4cc\	-ta,	.
=27	=27	=27	=27	=27
4DD/	4cc\ 4ee-X	4ee-X\	za-	.
4D\ 4F#X 4c	4.b-\ 4.dd	4.dd\	-mglo-	.
4D\ 4F# 4c	.	.	.	.
.	8a\ 8cc#X	8cc#X\	-ne	.
=28	=28	=28	=28	=28
4GG/	2.b-\ 2.dd	2.dd\	łzą!	.
4G\ 4B- 4d	.	.	.	.
4G\ 4B- 4d	.	.	.	.
=29	=29	=29	=29	=29
4EE/	4.g#X/	4.g#X/	Jesz-	.
4E\ 4G#X 4Bn 4d	.	.	.	.
.	8g#/	8g#/	-cze	.
4E\ 4G# 4B 4d	4g#/	4g#/	raz	.
=30	=30	=30	=30	=30
4AA/	2a/	2a/	u-	.
4E\ 4A 4c	.	.	.	.
4E\ 4A 4c	4a/	4a/	-sta,	.
!!LO:LB:g=original
=31	=31	=31	=31	=31
4EE/	4bn\	4bn\	raz	.
4E\ 4G#X 4Bn 4d	4b\	4b\	u-	.
4E\ 4G# 4B 4d	4b\	4b\	-ścisk	.
=32	=32	=32	=32	=32
4AA/	4dd\	4dd\	dło-	.
4E\ 4A 4c	2cc\	2cc\	-ni...	.
4E\ 4A 4c	.	.	.	.
=33	=33	=33	=33	=33
4BBB-/ 4BB-	4b-\	4b-\	Że-	.
4BB-\ 4D 4G	4.a/	4.a/	-gnaj,	.
4BB-\ 4D 4G	.	.	.	.
.	8g/	8g/	Ni-	.
=34	=34	=34	=34	=34
*	*8va	*	*	*
4CC/ 4C	4cc/ 4ccc	2.cc\	-non!	.
4C\ 4F 4A	8dd\L 8ddd	.	.	.
.	8ee\ 8eee	.	.	.
4C\ 4F 4A	8ff\ 8fff	.	.	.
.	8ff#X\J 8fff#X	.	.	.
*	*X8va	*	*	*
!!LO:LB:g=original
=35	=35	=35	=35	=35
*	*8va	*	*	*
4CC/ 4C	4gg\ 4ggg	4cc\	że-	.
.	8qqbb-/ 8qqbbb-	.	.	.
4C\ 4E 4G 4B-	4.aa\ 4.aaa	4.cc\	-gnaj,	.
4C\ 4E 4G 4B-	.	.	.	.
.	8gg\ 8ggg	8cc\	Ni-	.
=36||	=36||	=36||	=36||	=36||
*>B1	*>B1	*>B1	*	*
*k[b-e-a-d-]	*k[b-e-a-d-]	*k[b-e-a-d-]	*	*
8.FFF\L 8.FF	8ff:\ 8aa-: 8ccc: 8fff:	[2.cc\	-non!	.
*	*X8va	*	*	*
.	16Bn'/LL	.	.	.
16C\K	16c/J	.	.	.
8A-\	8d-/	.	.	.
8C\	8c/	.	.	.
8B-\	8.en/ 8.g	.	.	.
8C\J	.	.	.	.
.	16a-/Jk	.	.	.
=37	=37	=37	=37	=37
8.FF\L	8f/L	8cc\]	.	.
.	16Bn/L	8r	.	.
16C\K	16c/J	.	.	.
8A-\	8d-/	4r	.	.
!	!LO:TX:b:t=D.S.al Fine.	!	!	!
8C\	8c/	.	.	.
8B-\	8.en/ 8.g	4r	.	.
8C\J	.	.	.	.
.	16a-/Jk	.	.	.
=38:|!	=38:|!	=38:|!	=38:|!	=38:|!
*>B2	*>B2	*>B2	*	*
*	*8va	*	*	*
4F\ 4A- 4c	2.ff:\ 2.aa-: 2.ccc: 2.fff:	2.cc\	non!	.
!LO:TX:a:t=Fine.	!	!	!	!
2FFF/ 2FF	.	.	.	.
*	*X8va	*	*	*
==	==	==	==	==
*-	*-	*-	*-	*-
!!!system-decoration: s1{(s2,s3)}
!!!RDF**kern: < = below
!!!RDF**kern: > = above
!!!ENC: Berenika Jozajtis
!!!END: 2023-08-26
!!!ENC: Marta Chmielewska
!!!END: 2023-09-22
